X:1
T:The Bunch Of Keys
R:Reel
S:Paddy Canny, Clare (fiddle)
H:Slide all held notes
D:Home tape of unknown provenance
Z:Bernie Stocks
N:As played
M:4/4
K:G
DEFD G4 | (3.G.G.G dG eGdG | DE=FD F3G | (3.A.A.=F cF dFcF |
DEFD G3A | _BAGA =Bcde | =fage fd(3.c.c.A | GBAG DGGF |
DEFD G4 | (3.G.G.G dG eGdG | DE=FD F4 | dc_BA BAG=F |
DE{G}FD G3A | _BAGA =Bcde | =fage fd(3.c.c.A | GBAG DGG2 ||
|: dgfa g3a | bg~g2 bg{a}gf | f3e {a}=fefg | ag=fg afgf |
dg~g2 dgbg | agfa gfde | (3.=f.f.a ge fdcA | GBAF DGG2 :|
|: BG(3.G.G.G BGdG | BG(3.G.G.G Bdgd | A=F(3.F.F.F AFcF | A=F(3.F.F.F A_BcA |
BG(3.G.G.G BGdG | BG(3.G.G.G Bcde | fage fdcA | GBAF DGG2 :|
